X: 18241
T: Humours Of Lisheen, The
R: jig
M: 6/8
K: Gmajor
efg edB|c2A BGE|GFG BdB|BAG ABd|
efg edB|c2A BGE|DEG AGA|BGF G2G:|
GBd gfg|agf edB|g2d ege|dBA ABd|
efg edB|c2A BGE|DEG AGA|BGF G2G:|

